app/dist/common/images/nippon-steel-and-sumitomo-metal.svg

<svg height="18" width="18" xmlns="http://www.w3.org/2000/svg"><path d="m0 0h18v18h-18z" fill="#f0f3fa"/><path d="m9 7.4-4-2.4h2.27z" fill="#9ed2f1"/><path d="m7.27 5 1.73 2.4 1.73-2.4z" fill="#c7eafb"/><path d="m9 7.4 1.73-2.4h2.27z" fill="#9ed2f1"/><path d="m5 9.8v-4.8l4 2.4zm8 0v-4.8l-4 2.4z" fill="#65bbe9"/><path d="m5 9.8 4-2.4-4 5.6zm8 0-4-2.4 4 5.6z" fill="#00a7e1"/><path d="m5 13 4-5.6 4 5.6z" fill="#0b6eaa"/></svg>

<!-- by TradingView --><svg xmlns="http://www.w3.org/2000/svg" width="18" height="18"><path fill="#F0F3FA" d="M0 0h18v18H0z"/><path d="M9 7.4L5 5h2.27L9 7.4z" fill="#9ED2F1"/><path d="M7.27 5L9 7.4 10.73 5H7.27z" fill="#C7EAFB"/><path d="M9 7.4L10.73 5H13L9 7.4z" fill="#9ED2F1"/><path d="M5 9.8V5l4 2.4-4 2.4zm8 0V5L9 7.4l4 2.4z" fill="#65BBE9"/><path d="M5 9.8l4-2.4L5 13V9.8zm8 0L9 7.4l4 5.6V9.8z" fill="#00A7E1"/><path d="M5 13l4-5.6 4 5.6H5z" fill="#0B6EAA"/></svg>
